raw-svg/asteriks.svg

<svg fill="none" height="24" viewBox="0 0 24 24" width="24" xmlns="http://www.w3.org/2000/svg"><path clip-rule="evenodd" d="m12.75 5c0-.41421-.3358-.75-.75-.75s-.75.33579-.75.75v5.701l-4.93719-2.85052c-.35872-.20711-.81741-.0842-1.02452.27452s-.0842.81741.27452 1.02452l4.93719 2.85048-4.93719 2.8505c-.35872.2071-.48163.6658-.27452 1.0245s.6658.4816 1.02452.2745l4.93719-2.8505v5.701c0 .4142.3358.75.75.75s.75-.3358.75-.75v-5.701l4.9372 2.8505c.3587.2071.8174.0842 1.0245-.2745s.0842-.8174-.2745-1.0245l-4.9372-2.8505 4.9372-2.85048c.3587-.20711.4816-.6658.2745-1.02452s-.6658-.48163-1.0245-.27452l-4.9372 2.85052z" fill="#000" fill-rule="evenodd"/></svg>

<svg width="24" height="24" viewBox="0 0 24 24" fill="none" xmlns="http://www.w3.org/2000/svg">
<path fill-rule="evenodd" clip-rule="evenodd" d="M12.75 5C12.75 4.58579 12.4142 4.25 12 4.25C11.5858 4.25 11.25 4.58579 11.25 5V10.701L6.31281 7.85048C5.95409 7.64337 5.4954 7.76628 5.28829 8.125C5.08118 8.48372 5.20409 8.94241 5.56281 9.14952L10.5 12L5.56281 14.8505C5.20409 15.0576 5.08118 15.5163 5.28829 15.875C5.4954 16.2337 5.95409 16.3566 6.31281 16.1495L11.25 13.299V19C11.25 19.4142 11.5858 19.75 12 19.75C12.4142 19.75 12.75 19.4142 12.75 19V13.299L17.6872 16.1495C18.0459 16.3566 18.5046 16.2337 18.7117 15.875C18.9188 15.5163 18.7959 15.0576 18.4372 14.8505L13.5 12L18.4372 9.14952C18.7959 8.94241 18.9188 8.48372 18.7117 8.125C18.5046 7.76628 18.0459 7.64337 17.6872 7.85048L12.75 10.701V5Z" fill="black"/>
</svg>
